X: 15
T: Denis Murphy's
Z: methylDragon
S: https://thesession.org/tunes/357#setting52633
R: polka
M: 2/4
L: 1/8
K: Dmaj
|:f/g/f/e/ d>B|AD FA|GE BE|A>G FD|
f/g/f/e/ d>B|AD FA| GE e>f|1 ed d>e :|2 ed d>B ||
|:Af f/e/f|Bg g/f/g|Af f>d|e/f/e/d/ BA|
Af f/e/f|Bg g>a|ba gd|1 ed d>B:|2 ed d2||

